build/Karasa-Jaga/scalable/status/semi-starred-symbolic.svg

<svg height="16" width="16" xmlns="http://www.w3.org/2000/svg"><g fill="#bebebe" transform="translate(0 -6)"><path d="m8.0117188 1.4746094-2.1621094 4.375-4.8320313.7011718 3.4941407 3.4082032-.8261719 4.8105466 4.3203125-2.269531 4.3203126 2.273438-.822266-4.8125005 3.496094-3.40625-4.830078-.703125zm-.0019532 1.8671875 1.4179688 2.8769531a.82740452.82740452 0 0 0 .6210936.453125l3.173828.4628906-2.296875 2.234375a.82740452.82740452 0 0 0 -.240234.7343754l.541015 3.152343-2.8320308-1.490234a.82740452.82740452 0 0 0 -.7714843.001953l-2.8378907 1.492188.5429688-3.16211a.82740452.82740452 0 0 0 -.2382812-.7324216l-2.296875-2.2382813 3.1757812-.4589843a.82740452.82740452 0 0 0 .6210938-.4511719z" transform="translate(0 6)"/><path d="m10.339844 6.8320312-.7324221 2.3574219c-.0622967.1994676-.2185012.3556721-.4179688.4179688l-2.3574219.7324221 2.015625 1.423828c.1710978.120762.271875.317935.2695313.527344l-.03125 2.46875 1.9765625-1.476563c.08396-.06296.18074-.1032.281381-.119302z" fill-opacity=".907843" transform="matrix(1.2833546 .20377352 -.20377352 1.2833546 -3.867199 -1.533978)"/></g></svg>

<?xml version="1.0" encoding="UTF-8" standalone="no"?>
<!-- Created with Inkscape (http://www.inkscape.org/) -->

<svg
   xmlns:dc="http://purl.org/dc/elements/1.1/"
   xmlns:cc="http://creativecommons.org/ns#"
   xmlns:rdf="http://www.w3.org/1999/02/22-rdf-syntax-ns#"
   xmlns:svg="http://www.w3.org/2000/svg"
   xmlns="http://www.w3.org/2000/svg"
   xmlns:xlink="http://www.w3.org/1999/xlink"
   xmlns:sodipodi="http://sodipodi.sourceforge.net/DTD/sodipodi-0.dtd"
   xmlns:inkscape="http://www.inkscape.org/namespaces/inkscape"
   width="16"
   height="16"
   id="svg2"
   sodipodi:version="0.32"
   inkscape:version="0.92.2 (unknown)"
   version="1.0"
   sodipodi:docname="semi-starred-symbolic.svg"
   inkscape:output_extension="org.inkscape.output.svg.inkscape"
   style="display:inline">
  <defs
     id="defs4">
    <inkscape:perspective
       sodipodi:type="inkscape:persp3d"
       inkscape:vp_x="0 : 11 : 1"
       inkscape:vp_y="0 : 1000 : 0"
       inkscape:vp_z="22 : 11 : 1"
       inkscape:persp3d-origin="11 : 7.3333333 : 1"
       id="perspective29" />
    <linearGradient
       id="linearGradient4081">
      <stop
         style="stop-color:#aaaaaa;stop-opacity:1;"
         offset="0"
         id="stop4083" />
      <stop
         style="stop-color:#f0f0f0;stop-opacity:1;"
         offset="1"
         id="stop4085" />
    </linearGradient>
    <linearGradient
       inkscape:collect="always"
       xlink:href="#linearGradient4081"
       id="linearGradient3527"
       gradientUnits="userSpaceOnUse"
       gradientTransform="translate(-39,0)"
       x1="6.8391123"
       y1="16.300354"
       x2="6.8391123"
       y2="6.0528178" />
    <linearGradient
       inkscape:collect="always"
       xlink:href="#linearGradient4081"
       id="linearGradient3538"
       gradientUnits="userSpaceOnUse"
       gradientTransform="translate(-39,0)"
       x1="16.5"
       y1="19.542921"
       x2="16.5"
       y2="2.5" />
    <linearGradient
       inkscape:collect="always"
       xlink:href="#linearGradient4081"
       id="linearGradient3540"
       gradientUnits="userSpaceOnUse"
       gradientTransform="translate(-39,0)"
       x1="14.524625"
       y1="17.41902"
       x2="14.524625"
       y2="4.625" />
    <linearGradient
       inkscape:collect="always"
       xlink:href="#linearGradient4081"
       id="linearGradient3542"
       gradientUnits="userSpaceOnUse"
       gradientTransform="translate(-39,0)"
       x1="10.50519"
       y1="15.28125"
       x2="10.50519"
       y2="6.7458849" />
    <linearGradient
       inkscape:collect="always"
       xlink:href="#linearGradient4081"
       id="linearGradient3266"
       x1="9"
       y1="4.5"
       x2="14"
       y2="4.5"
       gradientUnits="userSpaceOnUse"
       gradientTransform="matrix(0,-1,1,0,6,16)" />
    <linearGradient
       inkscape:collect="always"
       xlink:href="#linearGradient4081"
       id="linearGradient3274"
       x1="11.984375"
       y1="20"
       x2="11.984375"
       y2="7.96875"
       gradientUnits="userSpaceOnUse" />
    <linearGradient
       inkscape:collect="always"
       xlink:href="#linearGradient4081"
       id="linearGradient3280"
       gradientUnits="userSpaceOnUse"
       gradientTransform="matrix(0,-1,1,0,7,16)"
       x1="9"
       y1="4.5"
       x2="14"
       y2="4.5" />
    <linearGradient
       inkscape:collect="always"
       xlink:href="#linearGradient4081"
       id="linearGradient3287"
       gradientUnits="userSpaceOnUse"
       gradientTransform="matrix(0,-1,1,0,7,16)"
       x1="9"
       y1="4.5"
       x2="14"
       y2="4.5" />
    <linearGradient
       inkscape:collect="always"
       xlink:href="#linearGradient4081"
       id="linearGradient3293"
       gradientUnits="userSpaceOnUse"
       x1="11.984375"
       y1="20"
       x2="11.984375"
       y2="7.96875"
       gradientTransform="translate(-1,0)" />
    <inkscape:perspective
       id="perspective4374"
       inkscape:persp3d-origin="0.5 : 0.33333333 : 1"
       inkscape:vp_z="1 : 0.5 : 1"
       inkscape:vp_y="0 : 1000 : 0"
       inkscape:vp_x="0 : 0.5 : 1"
       sodipodi:type="inkscape:persp3d" />
    <linearGradient
       inkscape:collect="always"
       xlink:href="#StandardGradient-1"
       id="linearGradient3833-8"
       x1="54"
       y1="3.5"
       x2="59"
       y2="3.5"
       gradientUnits="userSpaceOnUse"
       gradientTransform="translate(-53,53)" />
    <linearGradient
       id="StandardGradient-1"
       gradientTransform="matrix(0.9984539,0,0,0.9984539,-0.0459776,0.05767558)"
       x1="10.710332"
       y1="1.9963325"
       x2="10.710332"
       y2="18.974037"
       gradientUnits="userSpaceOnUse">
      <stop
         style="stop-color:#000000;stop-opacity:0.86274511;"
         offset="0"
         id="stop3277-4" />
      <stop
         style="stop-color:#000000;stop-opacity:0.47058824;"
         offset="1"
         id="stop3279-3" />
    </linearGradient>
    <linearGradient
       y2="3.5"
       x2="59"
       y1="3.5"
       x1="54"
       gradientTransform="translate(-45,53)"
       gradientUnits="userSpaceOnUse"
       id="linearGradient3829-0"
       xlink:href="#SpecificGradient-5"
       inkscape:collect="always" />
    <linearGradient
       id="SpecificGradient-5"
       x1="10.761708"
       y1="3.9999998"
       x2="10.761708"
       y2="18.011395"
       gradientUnits="userSpaceOnUse">
      <stop
         style="stop-color:#a50000;stop-opacity:1;"
         offset="0"
         id="stop3292-8" />
      <stop
         style="stop-color:#e73800;stop-opacity:1;"
         offset="1"
         id="stop3294-0" />
    </linearGradient>
    <linearGradient
       inkscape:collect="always"
       xlink:href="#StandardGradient-1"
       id="linearGradient3659"
       gradientUnits="userSpaceOnUse"
       x1="-15.94624"
       y1="-0.66848934"
       x2="-15.94624"
       y2="17.008953"
       gradientTransform="matrix(1.0182469,0,0,1.0182469,24.23721,3.6806872)" />
    <linearGradient
       inkscape:collect="always"
       xlink:href="#StandardGradient-1"
       id="linearGradient3663"
       gradientUnits="userSpaceOnUse"
       x1="-15.94624"
       y1="-0.66848934"
       x2="-15.94624"
       y2="17.008953" />
    <linearGradient
       inkscape:collect="always"
       xlink:href="#StandardGradient-1"
       id="linearGradient3668"
       gradientUnits="userSpaceOnUse"
       x1="-15.94624"
       y1="-0.66848934"
       x2="-15.94624"
       y2="17.008953" />
    <clipPath
       clipPathUnits="userSpaceOnUse"
       id="clipPath3673">
      <path
         style="fill:#ff00ff;fill-opacity:1;stroke:none;display:inline"
         d="m -23.802881,-2.6326495 0,21.6057615 21.6057616,0 0,-21.6057615 -21.6057616,0 z M -13,-0.66848934 l 2.27106,2.85417024 3.5907302,-0.7365601 -0.09207,3.6828003 3.1917603,1.7186402 -2.4245102,2.7621002 1.3503601,3.3759005 -3.6214203,0.55242 -1.1355301,3.46797 -3.13038,-1.90278 -3.130381,1.90278 -1.13553,-3.46797 -3.62142,-0.55242 1.35036,-3.3759005 -2.42451,-2.7621002 3.19176,-1.7186402 -0.09207,-3.6828003 3.590731,0.7365601 L -13,-0.66848934 z"
         id="path3675"
         inkscape:connector-curvature="0" />
    </clipPath>
    <linearGradient
       inkscape:collect="always"
       xlink:href="#StandardGradient-1"
       id="linearGradient5781"
       gradientUnits="userSpaceOnUse"
       x1="-15.94624"
       y1="-0.66848934"
       x2="-15.94624"
       y2="17.008953" />
    <linearGradient
       inkscape:collect="always"
       xlink:href="#StandardGradient-1"
       id="linearGradient5785"
       gradientUnits="userSpaceOnUse"
       x1="-15.94624"
       y1="-0.66848934"
       x2="-15.94624"
       y2="17.008953"
       gradientTransform="matrix(1.0182469,0,0,1.0182469,24.23721,2.6806872)" />
  </defs>
  <sodipodi:namedview
     id="base"
     pagecolor="#ffffff"
     bordercolor="#e7e7e7"
     borderopacity="1"
     inkscape:pageopacity="0.0"
     inkscape:pageshadow="2"
     inkscape:zoom="32.017796"
     inkscape:cx="5.8222109"
     inkscape:cy="12.216727"
     inkscape:document-units="px"
     inkscape:current-layer="layer1"
     showgrid="false"
     inkscape:showpageshadow="false"
     showguides="false"
     inkscape:guide-bbox="true"
     inkscape:window-width="1366"
     inkscape:window-height="649"
     inkscape:window-x="0"
     inkscape:window-y="30"
     inkscape:window-maximized="1">
    <sodipodi:guide
       orientation="1,0"
       position="0,112"
       id="guide2383"
       inkscape:locked="false" />
    <sodipodi:guide
       orientation="0,1"
       position="26.278146,128"
       id="guide2385"
       inkscape:locked="false" />
    <sodipodi:guide
       orientation="1,0"
       position="128,54.082119"
       id="guide2387"
       inkscape:locked="false" />
    <sodipodi:guide
       orientation="0,1"
       position="78.156291,0"
       id="guide2389"
       inkscape:locked="false" />
    <sodipodi:guide
       orientation="0,1"
       position="60.863576,64.084768"
       id="guide2391"
       inkscape:locked="false" />
    <inkscape:grid
       type="xygrid"
       id="grid3672"
       visible="true"
       enabled="true"
       empspacing="8"
       snapvisiblegridlinesonly="true" />
  </sodipodi:namedview>
  <metadata
     id="metadata7">
    <rdf:RDF>
      <cc:Work
         rdf:about="">
        <dc:format>image/svg+xml</dc:format>
        <dc:type
           rdf:resource="http://purl.org/dc/dcmitype/StillImage" />
        <dc:title></dc:title>
      </cc:Work>
    </rdf:RDF>
  </metadata>
  <g
     inkscape:label="Icon"
     inkscape:groupmode="layer"
     id="layer1"
     style="display:inline"
     transform="translate(0,-6)">
    <path
       style="color:#000000;display:inline;overflow:visible;visibility:visible;fill:#bebebe;fill-opacity:1;fill-rule:nonzero;stroke:none;stroke-width:1.29943168;marker:none;enable-background:accumulate"
       d="M 8.0117188 1.4746094 L 5.8496094 5.8496094 L 1.0175781 6.5507812 L 4.5117188 9.9589844 L 3.6855469 14.769531 L 8.0058594 12.5 L 12.326172 14.773438 L 11.503906 9.9609375 L 15 6.5546875 L 10.169922 5.8515625 L 8.0117188 1.4746094 z M 8.0097656 3.3417969 L 9.4277344 6.21875 A 0.82740452 0.82740452 0 0 0 10.048828 6.671875 L 13.222656 7.1347656 L 10.925781 9.3691406 A 0.82740452 0.82740452 0 0 0 10.685547 10.103516 L 11.226562 13.255859 L 8.3945312 11.765625 A 0.82740452 0.82740452 0 0 0 7.6230469 11.767578 L 4.7851562 13.259766 L 5.328125 10.097656 A 0.82740452 0.82740452 0 0 0 5.0898438 9.3652344 L 2.7929688 7.1269531 L 5.96875 6.6679688 A 0.82740452 0.82740452 0 0 0 6.5898438 6.2167969 L 8.0097656 3.3417969 z "
       transform="translate(0,6)"
       id="path3649" />
    <path
       transform="matrix(1.2833546,0.20377352,-0.20377352,1.2833546,-3.867199,-1.5339784)"
       style="color:#000000;display:inline;overflow:visible;visibility:visible;fill:#bebebe;fill-opacity:0.90784311;fill-rule:nonzero;stroke:none;stroke-width:1;marker:none;enable-background:accumulate"
       d="M 10.339844,6.8320312 9.6074219,9.1894531 C 9.5451252,9.3889207 9.3889207,9.5451252 9.1894531,9.6074219 l -2.3574219,0.7324221 2.015625,1.423828 c 0.1710978,0.120762 0.271875,0.317935 0.2695313,0.527344 l -0.03125,2.46875 1.9765625,-1.476563 c 0.08396,-0.06296 0.18074,-0.1032 0.281381,-0.119302 z"
       id="path857"
       inkscape:connector-curvature="0"
       sodipodi:nodetypes="cccccccccc" />
  </g>
</svg>
